X:1
T:Title
%%score { 1 | 2 }
L:1/8
M:4/4
K:G
V:1 treble nm="Grand Piano"
V:2 treble 
V:1
 z4 z2[Q:1/4=100] D2 | B3 B A2 G2 | c2 B4 G2 | [EG]3 [EG] [DF]2 E2 |[M:3/4] D6 |[M:1/4] D2 | %6
[M:4/4] A3 ^G A2 D2 | B3 _B =B2 [GB]2 | A2 d2 [DF]2 [^CE]2 |[M:3/4] D6 |[M:1/4] D2 | %11
[M:4/4] B3 B A2 G2 | c2 B4 G2 | [EG]3 [CE] [CG]2 [EA]2 |[M:3/4] [^DB]6 |[M:1/4] B2 | %16
[M:4/4] c2 B2 [^CA]3 [CE] | [DB]2 [FA]2 [EG]3 [GA] | [GB]3 [GB] [Fc]2 [CDF]2 |[M:3/4] [B,DG]6 |] %20
V:2
 z4 z2 [G,B,]2 | [G,DG]3 [G,DG] [G,CG]2 [G,B,]2 | [G,EG]2 [G,DG]4[K:bass] [G,B,D]2 | %3
 [C,C]3 [C,C] [C,G,]2 [E,G,C]2 |[M:3/4] [G,B,]6 |[M:1/4] [B,,G,]2 | %6
[M:4/4] [D,F,C]3 [D,=F,B,] [D,^F,C]2 [F,A,]2 | [G,B,D]3 [G,^CG] [G,DG]2 [E,E]2 | %8
 [A,DF]2 [A,F]2[K:bass] [A,,A,]2 [A,,G,]2 |[M:3/4] [D,F,]6 |[M:1/4] [G,B,]2 | %11
[M:4/4][K:treble] [G,DG]3 [G,DG] [G,CG]2 [G,B,]2 | [G,EG]2 [G,DG]4[K:bass] [G,B,D]2 | %13
 [C,C]3 [C,G,] [C,E,]2 [C,E,]2 |[M:3/4] [B,,F,]6 |[M:1/4] [E,^G,D]2 | %16
[M:4/4] [E,^G,D]2 [E,G,D]2 [A,,A,]3 [A,,A,] | [D,G,]2 [^D,C]2 [E,B,]3 [E,^C] | %18
 [D,D]3 [D,D] [D,G,]2 D,2 |[M:3/4] G,,6 |] %20

